icons/briefcase.svg

<svg xmlns="http://www.w3.org/2000/svg" width="24" height="24" viewBox="0 0 24 24">
  <path d="M22.0003836,11.8126777 L22,20 C22,21.1045695 21.1045695,22 20,22 L4,22 C2.8954305,22 2,21.1045695 2,20 L2.00014359,11.8129911 C5.56256497,13.9305225 8.89482704,15 12,15 C15.1053261,15 18.4377638,13.930417 22.0003836,11.8126777 Z M14,2 C15.5976809,2 16.9036609,3.24891996 16.9949073,4.82372721 L17,5 L17,6 L20,6 C21.1045695,6 22,6.8954305 22,8 L22.0001681,9.45996343 C18.3281473,11.8294892 14.9933963,13 12,13 C9.006616,13 5.67188006,11.8294988 1.99987709,9.45999258 L2,8 C2,6.8954305 2.8954305,6 4,6 L7,6 L7,5 C7,3.40231912 8.24891996,2.09633912 9.82372721,2.00509269 L10,2 L14,2 Z M14,4 L10,4 C9.48716416,4 9.06449284,4.38604019 9.00672773,4.88337887 L9,5 L9,6 L15,6 L15,5 C15,4.48716416 14.6139598,4.06449284 14.1166211,4.00672773 L14,4 Z"/>
</svg>

<svg xmlns="http://www.w3.org/2000/svg" viewBox="0 0 24 24">
  <path d="M22 11.81V20a2 2 0 0 1-2 2H4a2 2 0 0 1-2-2v-8.19C5.56 13.93 8.9 15 12 15c3.1 0 6.44-1.07 10-3.19zM14 2a3 3 0 0 1 3 2.82V6h3a2 2 0 0 1 2 2v1.46C18.33 11.83 15 13 12 13S5.67 11.83 2 9.46V8c0-1.1.9-2 2-2h3V5a3 3 0 0 1 2.82-3H14zm0 2h-4a1 1 0 0 0-1 .88V6h6V5a1 1 0 0 0-.88-1H14z"/>
</svg>
